img/Footer/ВКонтакте.svg

<svg width="36" height="36" viewBox="0 0 36 36" fill="none" xmlns="http://www.w3.org/2000/svg">
<path d="M18 35C27.3888 35 35 27.3888 35 18C35 8.61116 27.3888 1 18 1C8.61116 1 1 8.61116 1 18C1 27.3888 8.61116 35 18 35Z" stroke="white" stroke-opacity="0.5" stroke-width="2"/>
<path d="M18.64 16.49C18.9652 16.4904 19.2875 16.4293 19.59 16.31C19.8645 16.2077 20.0922 16.0085 20.23 15.75C20.3343 15.4964 20.3854 15.2241 20.38 14.95C20.376 14.7057 20.3143 14.4659 20.2 14.25C20.0714 14.0066 19.8523 13.8235 19.59 13.74C19.2687 13.627 18.9306 13.5695 18.59 13.57H16.59V16.57H17.16C17.75 16.52 18.24 16.51 18.64 16.49Z" fill="white" fill-opacity="0.8"/>
<path d="M20.12 19.08C19.751 19.0101 19.3752 18.9832 19 19H16.61V22.5H19.06C19.4757 22.4953 19.8865 22.4104 20.27 22.25C20.591 22.1392 20.8632 21.9199 21.04 21.63C21.1865 21.3527 21.2621 21.0436 21.26 20.73C21.2753 20.3782 21.1848 20.0298 21 19.73C20.7922 19.4167 20.4806 19.1865 20.12 19.08Z" fill="white" fill-opacity="0.8"/>
<path d="M18 2C14.8355 2 11.7421 2.93838 9.11088 4.69649C6.4797 6.45459 4.42894 8.95345 3.21793 11.8771C2.00693 14.8007 1.69008 18.0177 2.30744 21.1214C2.92481 24.2251 4.44866 27.0761 6.6863 29.3137C8.92394 31.5513 11.7749 33.0752 14.8786 33.6926C17.9823 34.3099 21.1993 33.9931 24.1229 32.7821C27.0466 31.5711 29.5454 29.5203 31.3035 26.8891C33.0616 24.2579 34 21.1645 34 18C34 13.7565 32.3143 9.68687 29.3137 6.68629C26.3131 3.68571 22.2435 2 18 2ZM24.6 22.53C24.3376 23.056 23.9537 23.5119 23.48 23.86C22.9342 24.2714 22.3122 24.5705 21.65 24.74C20.8286 24.9383 19.9848 25.029 19.14 25.01H13V11H18.45C19.2781 10.9868 20.1063 11.0235 20.93 11.11C21.473 11.194 21.9994 11.3627 22.49 11.61C22.9868 11.8462 23.4013 12.2258 23.68 12.7C23.9455 13.1728 24.0801 13.7079 24.07 14.25C24.0819 14.8916 23.8931 15.5209 23.53 16.05C23.1452 16.588 22.6142 17.0045 22 17.25V17.32C22.8272 17.4588 23.5898 17.8541 24.18 18.45C24.7295 19.0712 25.0163 19.8815 24.98 20.71C25.0043 21.3386 24.8738 21.9636 24.6 22.53Z" fill="white" fill-opacity="0.8"/>
</svg>

<svg width="36" height="36" fill="none" xmlns="http://www.w3.org/2000/svg"><path d="M18 35c9.389 0 17-7.611 17-17S27.389 1 18 1 1 8.611 1 18s7.611 17 17 17z" stroke="#fff" stroke-opacity=".5" stroke-width="2"/><path d="M18.64 16.49c.325 0 .648-.06.95-.18a1.2 1.2 0 00.64-.56 2 2 0 00.15-.8 1.55 1.55 0 00-.18-.7 1.05 1.05 0 00-.61-.51 3 3 0 00-1-.17h-2v3h.57c.59-.05 1.08-.06 1.48-.08zM20.12 19.08A4.851 4.851 0 0019 19h-2.39v3.5h2.45a3.23 3.23 0 001.21-.25c.321-.11.593-.33.77-.62a1.9 1.9 0 00.22-.9 1.76 1.76 0 00-.26-1 1.6 1.6 0 00-.88-.65z" fill="#fff" fill-opacity=".8"/><path d="M18 2a16 16 0 100 32 16 16 0 000-32zm6.6 20.53a3.7 3.7 0 01-1.12 1.33 5.17 5.17 0 01-1.83.88 9.76 9.76 0 01-2.51.27H13V11h5.45c.828-.013 1.656.024 2.48.11.543.084 1.07.253 1.56.5a2.75 2.75 0 011.19 1.09c.265.473.4 1.008.39 1.55a3.08 3.08 0 01-.54 1.8 3.46 3.46 0 01-1.53 1.2v.07a4 4 0 012.18 1.13 3.2 3.2 0 01.8 2.26 3.841 3.841 0 01-.38 1.82z" fill="#fff" fill-opacity=".8"/></svg>
